tests/fixtures/sample_presets/color_grading.xmp
<x:xmpmeta xmlns:x="adobe:ns:meta/" x:xmptk="Adobe XMP Core 7.0-c000 1.000000, 0000/00/00-00:00:00">
 <rdf:RDF xmlns:rdf="http://www.w3.org/1999/02/22-rdf-syntax-ns#">
  <rdf:Description rdf:about=""
    xmlns:crs="http://ns.adobe.com/camera-raw-settings/1.0/"
    crs:Version="15.0"
    crs:ProcessVersion="11.0"
    crs:Temperature="5500"
    crs:Tint="0"
    crs:Saturation="0"
    crs:Vibrance="0"
    crs:ColorGradeShadowHue="220"
    crs:ColorGradeShadowSat="30"
    crs:ColorGradeShadowLum="-10"
    crs:ColorGradeMidtoneHue="45"
    crs:ColorGradeMidtoneSat="15"
    crs:ColorGradeMidtoneLum="0"
    crs:ColorGradeHighlightHue="55"
    crs:ColorGradeHighlightSat="25"
    crs:ColorGradeHighlightLum="+5"
    crs:ColorGradeGlobalHue="0"
    crs:ColorGradeGlobalSat="0"
    crs:ColorGradeGlobalLum="0"
    crs:ColorGradeBlending="50"
    crs:ColorGradeBalance="0">
  </rdf:Description>
 </rdf:RDF>
</x:xmpmeta>
