tests/fixtures/sample_presets/minimal.xmp
<x:xmpmeta xmlns:x="adobe:ns:meta/" x:xmptk="Adobe XMP Core 7.0-c000 1.000000, 0000/00/00-00:00:00">
 <rdf:RDF xmlns:rdf="http://www.w3.org/1999/02/22-rdf-syntax-ns#">
  <rdf:Description rdf:about=""
    xmlns:crs="http://ns.adobe.com/camera-raw-settings/1.0/"
    crs:Version="15.0"
    crs:ProcessVersion="11.0"
    crs:Temperature="5500"
    crs:Tint="0"
    crs:Saturation="+20"
    crs:Vibrance="+10">
  </rdf:Description>
 </rdf:RDF>
</x:xmpmeta>
