tests/fixtures/sample_presets/warm_film.xmp
<x:xmpmeta xmlns:x="adobe:ns:meta/" x:xmptk="Adobe XMP Core 7.0-c000 1.000000, 0000/00/00-00:00:00">
 <rdf:RDF xmlns:rdf="http://www.w3.org/1999/02/22-rdf-syntax-ns#">
  <rdf:Description rdf:about=""
    xmlns:crs="http://ns.adobe.com/camera-raw-settings/1.0/"
    crs:Version="15.0"
    crs:ProcessVersion="11.0"
    crs:Temperature="6200"
    crs:Tint="+12"
    crs:Exposure2012="+0.50"
    crs:Contrast2012="+10"
    crs:Highlights2012="-20"
    crs:Shadows2012="+15"
    crs:Whites2012="+5"
    crs:Blacks2012="-5"
    crs:Vibrance="+25"
    crs:Saturation="-10"
    crs:HueAdjustmentRed="+5"
    crs:HueAdjustmentOrange="+10"
    crs:HueAdjustmentYellow="+5"
    crs:HueAdjustmentGreen="0"
    crs:HueAdjustmentAqua="0"
    crs:HueAdjustmentBlue="0"
    crs:HueAdjustmentPurple="0"
    crs:HueAdjustmentMagenta="0"
    crs:SaturationAdjustmentRed="+15"
    crs:SaturationAdjustmentOrange="+10"
    crs:SaturationAdjustmentYellow="-5"
    crs:SaturationAdjustmentGreen="-20"
    crs:SaturationAdjustmentAqua="-10"
    crs:SaturationAdjustmentBlue="+5"
    crs:SaturationAdjustmentPurple="0"
    crs:SaturationAdjustmentMagenta="+5"
    crs:LuminanceAdjustmentRed="+10"
    crs:LuminanceAdjustmentOrange="+15"
    crs:LuminanceAdjustmentYellow="+5"
    crs:LuminanceAdjustmentGreen="0"
    crs:LuminanceAdjustmentAqua="0"
    crs:LuminanceAdjustmentBlue="-10"
    crs:LuminanceAdjustmentPurple="0"
    crs:LuminanceAdjustmentMagenta="0"
    crs:SplitToningShadowHue="40"
    crs:SplitToningShadowSaturation="20"
    crs:SplitToningHighlightHue="50"
    crs:SplitToningHighlightSaturation="15"
    crs:SplitToningBalance="+20"
    crs:Clarity2012="+15"
    crs:Dehaze="0"
    crs:Sharpness="40"
    crs:LuminanceSmoothing="0"
    crs:ColorNoiseReduction="25"
    crs:VignetteAmount="0"
    crs:GrainAmount="25">
   <crs:ToneCurvePV2012>
    <rdf:Seq>
     <rdf:li>0, 0</rdf:li>
     <rdf:li>32, 38</rdf:li>
     <rdf:li>128, 133</rdf:li>
     <rdf:li>224, 218</rdf:li>
     <rdf:li>255, 250</rdf:li>
    </rdf:Seq>
   </crs:ToneCurvePV2012>
  </rdf:Description>
 </rdf:RDF>
</x:xmpmeta>
